Origami/64x64/apps/preferences-system-brightness-lock.svg

<svg width="64" height="64" version="1" xmlns="http://www.w3.org/2000/svg">
 <path d="m31.968998 2.875809c-2.951999 2.9121601-5.776 6.2275145-8.762 9.124875h-11.238199v11.238046c-2.8977996 2.985759-6.2123996 5.81032-9.1249995 8.761679 2.9121999 2.95116 6.2273999 5.88792 9.1249995 8.882678v11.117048h11.238199c2.9858 2.89756 5.810601 6.212314 8.7618 9.124874 2.9512-2.91216 5.888-6.227514 8.8828-9.124874h11.1172v-11.121048c2.897601-2.994358 6.2128-5.927918 9.125001-8.878678-2.912201-2.951159-6.2274-5.77572-9.125001-8.761679v-11.238046h-11.1172c-2.993999-2.8983605-5.93-6.2133149-8.882-9.125675zm0 17.124765c-6.627199 0-11.999998 5.372726-11.999998 11.999835s5.3728 11.999835 11.999999 11.999835z" style="fill:#325f78"/>
 <path d="m31.906327 16.125142a15.999929 15.999929 0 0 0 -15.999928 15.999929 15.999929 15.999929 0 0 0 15.999928 15.999929v-31.999858z" style="opacity:.2"/>
 <path d="m31.906327 15.125214a15.999929 15.999929 0 0 0 -15.999928 15.999929 15.999929 15.999929 0 0 0 15.999928 15.999929v-31.999858z" style="fill:#ffffff"/>
 <path d="m32.03125 2.875c-2.951186 2.9121871-5.775931 6.2276127-8.761719 9.125h-11.238281v1h11.238281c2.985788-2.897387 5.810533-6.2128129 8.761719-9.125 2.951987 2.9123871 5.888824 6.227413 8.882812 9.125h11.117188v-1h-11.117188c-2.993988-2.8975873-5.930825-6.2126129-8.882812-9.125zm-20 20.363281c-2.8977872 2.985787-6.212413 5.810332-9.125 8.761719 0.1644545 0.166657 0.341235 0.333265 0.515625 0.5 2.7866963-2.769611 5.8774972-5.444926 8.609375-8.259766v-1.001953zm40 0v1.001953c2.731939 2.815284 5.82471 5.490053 8.611328 8.259766 0.174008-0.166387 0.349459-0.333609 0.513672-0.5-2.912188-2.951187-6.227412-5.775732-9.125-8.761719z" style="fill:#ffffff;opacity:.1"/>
 <path d="m60.640625 32.507812c-2.786075 2.779944-5.878125 5.548603-8.609375 8.371094v1c2.897588-2.994386 6.212813-5.927919 9.125-8.878906-0.164267-0.16647-0.341153-0.328925-0.515625-0.492188zm-57.21875 2e-3c-0.1742888 0.163333-0.3514532 0.325636-0.515625 0.492187 2.912187 2.949987 6.2274128 5.884874 9.125 8.880859v-1c-2.7312493-2.824045-5.8233003-5.593737-8.609375-8.373092zm37.492187 19.490188c-2.994786 2.897387-5.931625 6.212813-8.882812 9.125-2.951986-2.911987-5.775732-6.22706-8.761719-9.123047h-11.238281v1h11.238281c2.985987 2.895987 5.809733 6.21106 8.761719 9.123047 2.951187-2.912187 5.888026-6.227613 8.882812-9.125h11.117188v-1h-11.117188z" style="opacity:.2"/>
</svg>

<svg xmlns="http://www.w3.org/2000/svg" width="64" height="64" version="1">
 <path style="fill:#325f78" d="m 31.968998,2.875809 c -2.951999,2.9121601 -5.776,6.2275145 -8.762,9.124875 l -11.238199,0 0,11.238046 c -2.8977996,2.985759 -6.2123996,5.81032 -9.1249995,8.761679 2.9121999,2.95116 6.2273999,5.88792 9.1249995,8.882678 l 0,11.117048 11.238199,0 c 2.9858,2.89756 5.810601,6.212314 8.7618,9.124874 2.9512,-2.91216 5.888,-6.227514 8.8828,-9.124874 l 11.1172,0 0,-11.121048 c 2.897601,-2.994358 6.2128,-5.927918 9.125001,-8.878678 -2.912201,-2.951159 -6.2274,-5.77572 -9.125001,-8.761679 l 0,-11.238046 -11.1172,0 c -2.993999,-2.8983605 -5.93,-6.2133149 -8.882,-9.125675 z m 0,17.124765 c -6.627199,0 -11.999998,5.372726 -11.999998,11.999835 0,6.627109 5.3728,11.999835 11.999999,11.999835 z"/>
 <path style="opacity:0.2" d="M 31.906327,16.125142 A 15.999929,15.999929 0 0 0 15.906399,32.125071 15.999929,15.999929 0 0 0 31.906327,48.125 l 0,-31.999858 z"/>
 <path style="fill:#ffffff" d="M 31.906327,15.125214 A 15.999929,15.999929 0 0 0 15.906399,31.125143 15.999929,15.999929 0 0 0 31.906327,47.125072 l 0,-31.999858 z"/>
 <path style="opacity:0.1;fill:#ffffff" d="M 32.03125 2.875 C 29.080064 5.7871871 26.255319 9.1026127 23.269531 12 L 12.03125 12 L 12.03125 13 L 23.269531 13 C 26.255319 10.102613 29.080064 6.7871871 32.03125 3.875 C 34.983237 6.7873871 37.920074 10.102413 40.914062 13 L 52.03125 13 L 52.03125 12 L 40.914062 12 C 37.920074 9.1024127 34.983237 5.7873871 32.03125 2.875 z M 12.03125 23.238281 C 9.1334628 26.224068 5.818837 29.048613 2.90625 32 C 3.0707045 32.166657 3.247485 32.333265 3.421875 32.5 C 6.2085713 29.730389 9.2993722 27.055074 12.03125 24.240234 L 12.03125 23.238281 z M 52.03125 23.238281 L 52.03125 24.240234 C 54.763189 27.055518 57.85596 29.730287 60.642578 32.5 C 60.816586 32.333613 60.992037 32.166391 61.15625 32 C 58.244062 29.048813 54.928838 26.224268 52.03125 23.238281 z"/>
 <path style="opacity:0.2" d="M 60.640625,32.507812 C 57.85455,35.287756 54.7625,38.056415 52.03125,40.878906 l 0,1 C 54.928838,38.88452 58.244063,35.950987 61.15625,33 60.991983,32.83353 60.815097,32.671075 60.640625,32.507812 Z m -57.21875,0.002 c -0.1742888,0.163333 -0.3514532,0.325636 -0.515625,0.492187 2.912187,2.949987 6.2274128,5.884874 9.125,8.880859 l 0,-1 C 9.3000007,38.058813 6.2079497,35.289121 3.421875,32.509766 Z M 40.914062,52 c -2.994786,2.897387 -5.931625,6.212813 -8.882812,9.125 -2.951986,-2.911987 -5.775732,-6.22706 -8.761719,-9.123047 l -11.238281,0 0,1 11.238281,0 c 2.985987,2.895987 5.809733,6.21106 8.761719,9.123047 2.951187,-2.912187 5.888026,-6.227613 8.882812,-9.125 l 11.117188,0 0,-1 -11.117188,0 z"/>
</svg>
